src/landing/public/images/social/github.svg

<svg width="27" height="27" viewBox="0 0 27 27" fill="none" xmlns="http://www.w3.org/2000/svg">
<path d="M13.3251 0C11.5752 0 9.84247 0.344664 8.22579 1.01431C6.60912 1.68396 5.14018 2.66548 3.90283 3.90283C1.40389 6.40177 0 9.79105 0 13.3251C0 19.2148 3.8243 24.2117 9.11436 25.9839C9.78061 26.0905 9.99381 25.6774 9.99381 25.3177C9.99381 25.0112 9.99381 24.1717 9.99381 23.0657C6.30276 23.8652 5.51658 21.2802 5.51658 21.2802C4.90363 19.7345 4.0375 19.3214 4.0375 19.3214C2.82492 18.4952 4.13078 18.5219 4.13078 18.5219C5.46328 18.6151 6.16951 19.8944 6.16951 19.8944C7.3288 21.9198 9.28758 21.3201 10.0471 21.0003C10.167 20.1342 10.5135 19.5479 10.8866 19.2148C7.92843 18.8816 4.82368 17.7357 4.82368 12.6588C4.82368 11.1797 5.33003 9.99381 6.19616 9.04773C6.06291 8.71461 5.59654 7.3288 6.32942 5.52991C6.32942 5.52991 7.44872 5.17013 9.99381 6.88907C11.0465 6.59592 12.1925 6.44934 13.3251 6.44934C14.4577 6.44934 15.6037 6.59592 16.6564 6.88907C19.2014 5.17013 20.3208 5.52991 20.3208 5.52991C21.0536 7.3288 20.5873 8.71461 20.454 9.04773C21.3201 9.99381 21.8265 11.1797 21.8265 12.6588C21.8265 17.749 18.7084 18.8683 15.7369 19.2014C16.2166 19.6145 16.6564 20.4274 16.6564 21.6666V25.3177C16.6564 25.6774 16.8696 26.1038 17.5491 25.9839C22.8392 24.1984 26.6502 19.2148 26.6502 13.3251C26.6502 11.5752 26.3055 9.84247 25.6359 8.2258C24.9662 6.60912 23.9847 5.14018 22.7473 3.90283C21.51 2.66548 20.041 1.68396 18.4244 1.01431C16.8077 0.344664 15.075 0 13.3251 0Z" fill="white"/>
</svg>

<?xml version="1.0" encoding="utf-8"?>
<!-- Generator: Adobe Illustrator 27.0.0, SVG Export Plug-In . SVG Version: 6.00 Build 0)  -->
<svg version="1.1" id="Layer_1" xmlns="http://www.w3.org/2000/svg" xmlns:xlink="http://www.w3.org/1999/xlink" x="0px" y="0px"
	 viewBox="0 0 27 27" style="enable-background:new 0 0 27 27;" xml:space="preserve">
<style type="text/css">
	.st0{fill:#BFA38A;}
</style>
<path class="st0" d="M13.3,0c-1.7,0-3.5,0.3-5.1,1C6.6,1.7,5.1,2.7,3.9,3.9C1.4,6.4,0,9.8,0,13.3C0,19.2,3.8,24.2,9.1,26
	c0.7,0.1,0.9-0.3,0.9-0.7c0-0.3,0-1.1,0-2.3c-3.7,0.8-4.5-1.8-4.5-1.8c-0.6-1.5-1.5-2-1.5-2c-1.2-0.8,0.1-0.8,0.1-0.8
	c1.3,0.1,2,1.4,2,1.4c1.2,2,3.1,1.4,3.9,1.1c0.1-0.9,0.5-1.5,0.8-1.8c-3-0.3-6.1-1.5-6.1-6.6c0-1.5,0.5-2.7,1.4-3.6
	C6.1,8.7,5.6,7.3,6.3,5.5c0,0,1.1-0.4,3.7,1.4c1.1-0.3,2.2-0.4,3.3-0.4s2.3,0.1,3.3,0.4c2.5-1.7,3.7-1.4,3.7-1.4
	c0.7,1.8,0.3,3.2,0.1,3.5c0.9,0.9,1.4,2.1,1.4,3.6c0,5.1-3.1,6.2-6.1,6.5c0.5,0.4,0.9,1.2,0.9,2.5v3.7c0,0.4,0.2,0.8,0.9,0.7
	c5.3-1.8,9.1-6.8,9.1-12.7c0-1.7-0.3-3.5-1-5.1C25,6.6,24,5.1,22.7,3.9C21.5,2.7,20,1.7,18.4,1C16.8,0.3,15.1,0,13.3,0z"/>
</svg>
